X: 22574
T: Lady Mary Hope Vere
R: reel
M: 4/4
K: Dmajor
d2Ad fdAF|GBEF GABc|d2Ad fdAF|GBEG FDDc|
d2Ad fdAF|GBEF GABc|d2Ad fdAF|GBEG FD3||
fdad bdad|fgaf gfeg|f/e/dad bdad|gbag fdde|
fdad bdad|fgaf gfeg|afdg bged|cdef gedc||

